!!!!SEGMENT: pl-wnifc--13846--139_anonim--piesni-polskie-i-ruskie-ludu-galicyjskiego-139-cy-ja-tobi-ne-kazala.krn
!!!kernsource:
!!!cenid: 18xx:3361
!!!COM: Anonim
!!!COM-rismid: pe30004985
!!!CDT:
!!!CNT:
!!!GTL: Pieśni polskie i ruskie ludu galicyjskiego
!!!OTL: 139. Cy ja tobi ne kazała
!!!PDT: 1833
!!!AGN:
!!!SMS-siglum: PL-Wnifc
!!!SMS-shelfmark: 13846
!!!SMS-shelfwork: 139 G
!!!NIFC-rismid: 1001039654
!!!URL-scan: http://repozytorium.nifc.pl/skany/pl-wnifc-nut--13846
!!!ONB-nifc:
!!!AIN: 1 piano 1 vox
!!!key: g
**kern	**kern	**kern	**text
*part2	*part2	*part1	*part1
*staff3	*staff2	*staff1	*staff1
*I"FORTEPIAN.	*I"FORTEPIAN.	*I"GŁOS.	*
*Ipiano	*Ipiano	*Ivox	*
*ICklav	*ICklav	*ICvox	*
*IGacmp	*IGacmp	*IGsolo	*
*clefF4	*clefG2	*clefG2	*
*k[b-e-]	*k[b-e-]	*k[b-e-]	*
*g:	*g:	*g:	*
*M2/4	*M2/4	*M2/4	*
=1	=1	=1	=1
*tremolo	*	*	*
!LO:TX:b:t=''''	!LO:TX:a:t=E.232.:rj	!LO:TX:a:B:t=Kołomyika	!
8G/ 8D/ 8GG|/L	8cc#X\|L	8cc#X\	Cy
8G/ 8D/ 8GG|/	8dd\|	8dd\	ja
8G/ 8D/ 8GG|/	8een\|	8een\	to-
8G/ 8D/ 8GG|/J	8ff\|J	8ff\	-bi
=2	=2	=2	=2
!LO:TX:b:t=''''	!	!	!
8G/ 8D/ 8GG|/L	8een\|L	8een\	ne
.	16qff/LL	.	.
.	16qee/JJ	.	.
8G/ 8D/ 8GG|/	8dd\|	8dd\	ka-
8G/ 8D/ 8GG|/	8cc#X\|	8cc#X\	-za-
8G/ 8D/ 8GG|/J	8b-X\|J	8b-X\	-ła,
!!LO:LB:g=original
=3	=3	=3	=3
!LO:TX:b:t=''''	!	!	!
8G/ 8D/ 8GG|/L	8dd\|	8dd\	ne
8G/ 8D/ 8GG|/	(>16dd\^<LL	(>16dd\LL	da-
.	16ccn\JJ)	16ccn\JJ)	.
8G/ 8D/ 8GG|/	(>16b-\^<LL	(>16b-\LL	-wa-
.	16a\)	16a\JJ)	.
8G/ 8D/ 8GG|/J	(>16g\^<	(<16g/LL	-ła
.	16f#X\JJ)	16f#X/JJ)	.
*Xtremolo	*	*	*
=4	=4	=4	=4
4G/ 4D/ 4GG/^	4g/	4g/	zna-
4G/ 4D/ 4GG/^	(<8.b-/L	(<8.b-/L	-ty,
.	16g/Jk)	16g/Jk)	.
!!LO:LB:g=original
=5	=5	=5	=5
*tremolo	*	*	*
!LO:TX:b:t=''''	!	!	!
8D/ 8GG/ 8DD|/L	8cc#X\L	8cc#X\	i
8D/ 8GG/ 8DD|/	8dd\	8dd\	sam
8D/ 8GG/ 8DD|/	8een\	8een\	nej-
8D/ 8GG/ 8DD|/J	8ff\J	8ff\	-dy,
=6	=6	=6	=6
!LO:TX:b:t=''''	!	!	!
8D/ 8GG/ 8DD|/L	8een\|L	8een\	lu-
8D/ 8GG/ 8DD|/	8dd\|	8dd\	-dyj
8D/ 8GG/ 8DD|/	8cc#X\|	8cc#X\	ne
8D/ 8GG/ 8DD|/J	8b-X\|J	8b-X\	sty,
*Xtremolo	*	*	*
!!LO:LB:g=original
=7	=7	=7	=7
.	8qd/	.	.
8D/L 8GG/ 8DD/	8dd\	8dd\	ne
8D/ 8GG/ 8DD/	(>16dd\LL	(>16dd\LL	dast'
.	16ccn\JJ)	16ccn\JJ)	.
8D/ 8C/ 8DD/	(<16b-/LL	(<16b-/LL	me-
.	16a/)	16a/JJ)	.
8D/J 8C/ 8DD/	(<16g/	(<16g/LL	-ne
.	16f#X/JJ)	16f#X/JJ)	.
=8	=8	=8	=8
4D/ 4BB-/ 4GG/^	4g/	4g/	ma-
4D/ 4BB-/ 4GG/^	8g/	8g/	-ty.
.	8r	8r	.
==	==	==	==
*-	*-	*-	*-
!!!system-decoration: <s1>{(s2,s3)}
!!!RDF**kern: > = above
!!!RDF**kern: < = below
!!!RDF**kern: | = vertical stroke
!!!ENC: Emilia Ziętek
!!!ENC: Andrzej Kubiczek
!!!END: 2021-11-12
